!!!OTL: Bauer keen Edelmann (221a), S. 476
!!!id: T0403
**kern
*clefG2
*k[]
*G:
{8g
=1
8g
8g
8g
8g
8b
8b
=2yy
8b
=3
8dd
8dd
8ee
4dd}
8r
=4
{8g
8g
8g
8b
8b
8b
=5
8dd
8dd
8ee
4dd}
8r
=6
{4.dd
4dd
8cc
=7
4ee
8ee
4ee}
8r
=8
{4.cc
8cc
8b
8a
=9
4dd
8dd
4dd}
8r
=10
{8g
8g
8g
8b
8b
8b
=11
4dd
8ee
4dd}
8r
=12
{8b
8b
8dd
8dd
8cc
8a
=13
4g}
2r
==
*-
!!!minrhy: 8
!!!meters: 6/8 ]  ZZ[6
!!!cut: Bauer keen Edelmann (221a), S. 476
!!!reg: Luxemburg
!!!trd: Singendes Volk, Esch-Alzette, 1937 posth.
!!!rhy1:   XXXXXX  XXXX_0
!!!rhy2: XXXXXX  XXXX_0
!!!key: T0403  08  G 6/8 ]  ZZ[6
!!!mod: SECHSTONSKALA DUR ?]  AMBITUS[6
!!!kad: 556551
!!!akz: 1355_1355_5566_4455_1355_351_
!!!fot: 'a__a__b__bs'av_c__
!!!for: 'a__a__b__c__d__aw_
!!!fok: '/__/__/__Va_/__^d_
!! PHRAS[VOLLTAKTIG]
!!!fkt: Berufslied
!!!bem: D&uuml;delingen, hhh Lorenz Aschenberger, 1910
!! THILL; Mathias
!! PR[64] 2K[0] 2G[0] 3K[3] 3G[5] 4A[0] 4Ü[0] 5A[3] 6K[0] 6G[2]
!! 7K[0] 7G[0] 8A[0] MEHR[0] SI[14] ABS[59] SR[0] SP[14]
!! ST[23] 2k[3] 2g[8] 3k[3] 3g[7] 4d[0] 4ü[0] 5d[0] 6k[0] 6g[0]
!! 7k[0] 7g[0] 8d[0] mehr[0] si[22] dm[-8] sr[12] sp[10]
!! 1F[25] 2F[60] 3F[6] 4F[0] LF[0] 2P[0] 3P[8] 4P[0] TRI[0] DF[4] AB[63]
!! TF[0] U3K[0] U3[0] U4[0] U4Ü[0] U5[0] U6K[0] U6[0] U7K[0] U7[0]
!! N1[45] N2K[0] N2[3] N3K[0] N3[20] N4[7] N4Ü[0] N5[22] N6K[0] N6[3]
!!!n7k: 0] N7[0] O1[0] O2K[0] O2[0] O3K[0] O3[0] HÖ[0
!!!RNB: symbol: &uuml;  = u umlaut (UTF-8: Ã¼)
